icons-rebrand/svg/monitoring-bold.svg

<svg xmlns="http://www.w3.org/2000/svg" width="32" height="32" viewBox="0 0 32 32"><path d="M16 17C17.6569 17 19 15.6569 19 14C19 12.3431 17.6569 11 16 11C14.3431 11 13 12.3431 13 14C13 15.6569 14.3431 17 16 17ZM16 15C15.4477 15 15 14.5523 15 14C15 13.4477 15.4477 13 16 13C16.5523 13 17 13.4477 17 14C17 14.5523 16.5523 15 16 15Z M10.8053 10.06C12.0817 8.96166 13.8244 8 16 8C18.1756 8 19.9183 8.96166 21.1946 10.06C22.4664 11.1544 23.329 12.4281 23.7779 13.1846C24.0739 13.6818 24.0737 14.3198 23.7772 14.8167C23.328 15.5734 22.4657 16.8462 21.1946 17.94C19.9183 19.0383 18.1756 20 16 20C13.8244 20 12.0817 19.0383 10.8053 17.94C9.53358 16.8456 8.67102 15.5719 8.22204 14.8154C7.92604 14.3182 7.92631 13.6802 8.22285 13.1833C8.67206 12.4266 9.53435 11.1538 10.8053 10.06ZM10.0669 14C10.4784 14.66 11.167 15.6126 12.1099 16.424C13.1513 17.3202 14.4486 18 16 18C17.5514 18 18.8487 17.3202 19.8901 16.424C20.833 15.6126 21.5215 14.66 21.9331 14C21.5215 13.34 20.833 12.3874 19.8901 11.576C18.8487 10.6798 17.5514 10 16 10C14.4486 10 13.1513 10.6798 12.1099 11.576C11.167 12.3874 10.4784 13.34 10.0669 14Z M28.9971 21.1812C29.2437 21.3016 29.4592 21.4772 29.6269 21.6943C29.7932 21.9069 29.9084 22.1548 29.9634 22.419C30.0184 22.6832 30.0119 22.9565 29.9442 23.2178C29.6628 24.3053 29.0266 25.2678 28.1363 25.9529C27.246 26.638 26.1526 27.0065 25.0292 27H6.97063C5.84692 27.0064 4.75321 26.6376 3.86274 25.9522C2.97228 25.2667 2.33598 24.3037 2.05463 23.2158C1.98753 22.9548 1.98134 22.6818 2.03654 22.418C2.09174 22.1542 2.20686 21.9066 2.37299 21.6943C2.54076 21.4772 2.75629 21.3016 3.00287 21.1812C3.24945 21.0608 3.52046 20.9988 3.79486 21H3.99994V10.1348C3.98382 8.79135 4.50113 7.49634 5.43844 6.53376C6.37575 5.57118 7.65654 5.01961 8.99995 5H22.9999C24.3433 5.01961 25.6241 5.57118 26.5614 6.53376C27.4988 7.49634 28.0161 8.79135 27.9999 10.1348V21H28.2051C28.4795 20.9988 28.7505 21.0608 28.9971 21.1812ZM6.85216 7.94747C6.28982 8.53507 5.98336 9.32164 5.99995 10.1348V21H25.9999V10.1348C26.0165 9.32164 25.7101 8.53507 25.1477 7.94747C24.5854 7.35986 23.813 7.01915 22.9999 7H8.99995C8.18684 7.01915 7.41449 7.35986 6.85216 7.94747ZM6.97064 25H25.0292C25.6586 25.0047 26.274 24.8152 26.7917 24.4573C27.3094 24.0994 27.704 23.5905 27.9218 23H4.07807C4.29594 23.5904 4.69061 24.0993 5.20825 24.4572C5.7259 24.8151 6.34133 25.0046 6.97064 25Z"/></svg>

<svg width="32" height="32" viewBox="0 0 32 32" xmlns="http://www.w3.org/2000/svg"><path d="M16 17a3 3 0 1 0 0-6 3 3 0 0 0 0 6Zm0-2a1 1 0 1 1 0-2 1 1 0 0 1 0 2Zm-5.194-4.94C12.082 8.962 13.825 8 16 8c2.176 0 3.919.962 5.195 2.06 1.272 1.094 2.134 2.368 2.583 3.125a1.61 1.61 0 0 1 0 1.632c-.45.756-1.312 2.03-2.583 3.123C19.919 19.038 18.175 20 16 20c-2.175 0-3.918-.962-5.194-2.06-1.272-1.094-2.135-2.368-2.584-3.125a1.61 1.61 0 0 1 .001-1.632c.45-.756 1.312-2.03 2.582-3.123ZM10.066 14c.412.66 1.1 1.613 2.043 2.424C13.152 17.32 14.45 18 16 18c1.552 0 2.849-.68 3.89-1.576.943-.811 1.632-1.764 2.043-2.424-.411-.66-1.1-1.613-2.043-2.424C18.85 10.68 17.552 10 16 10c-1.551 0-2.848.68-3.89 1.576-.943.811-1.631 1.764-2.043 2.424Zm18.93 7.181a1.786 1.786 0 0 1 .947 2.037A5.046 5.046 0 0 1 25.03 27H6.971a5.048 5.048 0 0 1-4.916-3.784 1.758 1.758 0 0 1 .318-1.522A1.787 1.787 0 0 1 3.795 21H4V10.135A5.074 5.074 0 0 1 9 5h14a5.074 5.074 0 0 1 5 5.135V21h.205c.275-.001.546.06.792.181ZM6.852 7.947A3.073 3.073 0 0 0 6 10.135V21h20V10.135A3.073 3.073 0 0 0 23 7H9c-.813.02-1.585.36-2.148.947ZM6.971 25h18.058a3.059 3.059 0 0 0 2.893-2H4.078a3.06 3.06 0 0 0 2.893 2Z"/></svg>
